X: 1
T: Jaybird
R: reel
Z: 2006 John Chambers <jc:trillian.mit.edu>
S: handwritten MS from Aline Pepper
M: C|
L: 1/8
K: D
ag \
| "D"fddd fddd | "D"fa2f a2gf | "A"eccc    eccc |    eg2e g2ag \
| "D"fddd fddd | "D"fa2f a2Bc | "G"dedB "A"ABAG | "D"F2D2 D2  :|
|: EF \
| "G"G2B2 B2AG | "D"F2A2 A2e2-|"Em"e2ee    e2ed | "A"cdcB A2EF \
| "G"G2B2 B2AG | "D"F2A2 A2Bc | "G"dedB "A"ABAG | "D"F2D2 D2  :|
